src/topics/icons/designernews.svg

<svg height="256" preserveAspectRatio="xMidYMid" viewBox="0 0 256 256" width="256" xmlns="http://www.w3.org/2000/svg" xmlns:xlink="http://www.w3.org/1999/xlink"><defs><circle id="a" cx="128" cy="128" r="128"/><mask id="b" fill="#fff"><use fill="#fff" xlink:href="#a"/></mask></defs><use fill="#b3bbc6" xlink:href="#a"/><path d="m38.714754 176.727132 107.339838 79.843708 264.006783 16.60416-202.307269-187.2510666.000003 42.6881956-18.874573-13.517399-35.121096-29.1707966-20.908309 34.0833976-29.394847-24.5397502-51.6864768-3.2788z" fill="#666c76" mask="url(#b)"/><path d="m118.837414 131.158952c0-27.131334-16.675844-45.5277021-48.4393577-45.5277021h-31.3664692v91.3201011h32.0282094c30.8370775 0 47.7776175-18.661064 47.7776175-45.792399zm-22.7638505.132348c0 19.587501-10.0584461 28.057771-26.2048985 28.057771h-8.2055746v-56.115541h8.2055746c15.4847123 0 26.2048985 8.867315 26.2048985 28.05777zm112.8928205 45.660051v-91.3201011h-21.043328v51.0863171l-33.616385-51.0863171h-21.969763v91.3201011h21.043328v-54.659713l35.998648 54.659713z" fill="#fff"/></svg>

<?xml version="1.0" encoding="UTF-8" standalone="no"?>
<svg width="256px" height="256px" viewBox="0 0 256 256" version="1.1" xmlns="http://www.w3.org/2000/svg" xmlns:xlink="http://www.w3.org/1999/xlink" preserveAspectRatio="xMidYMid">
    <defs>
        <circle id="path-1" cx="128" cy="128" r="128"></circle>
    </defs>
	<g>
		<g>
			<mask id="mask-2" fill="white">
				<use xlink:href="#path-1"></use>
			</mask>
			<use fill="#B3BBC6" xlink:href="#path-1"></use>
			<path d="M38.714754,176.727132 L146.054592,256.57084 L410.061375,273.175 L207.754106,85.9239334 L207.754109,128.612129 L188.879536,115.09473 L153.75844,85.9239334 L132.850131,120.007331 L103.455284,95.4675808 L51.7688072,92.1887808 L38.714754,176.727132 L38.714754,176.727132 Z" fill="#666C76" mask="url(#mask-2)"></path>
		</g>
		<path d="M118.837414,131.158952 C118.837414,104.027618 102.16157,85.6312499 70.3980563,85.6312499 L39.0315871,85.6312499 L39.0315871,176.951351 L71.0597965,176.951351 C101.896874,176.951351 118.837414,158.290287 118.837414,131.158952 L118.837414,131.158952 L118.837414,131.158952 Z M96.0735635,131.2913 C96.0735635,150.878801 86.0151174,159.349071 69.868665,159.349071 L61.6630904,159.349071 L61.6630904,103.23353 L69.868665,103.23353 C85.3533773,103.23353 96.0735635,112.100845 96.0735635,131.2913 L96.0735635,131.2913 L96.0735635,131.2913 Z M208.966384,176.951351 L208.966384,85.6312499 L187.923056,85.6312499 L187.923056,136.717567 L154.306671,85.6312499 L132.336908,85.6312499 L132.336908,176.951351 L153.380236,176.951351 L153.380236,122.291638 L189.378884,176.951351 L208.966384,176.951351 L208.966384,176.951351 Z" fill="#FFFFFF"></path>
	</g>
</svg>
